X: 672
M: C|
L: 1/8
K: G
[|\
[| d2 |\
gfga gfed | e6 d2 | edcB cBAG | F6 d2 |\
e2A2 d2G2 | F2G2 ABcd | edcB A3G | G6 |]

